X:1
T:Title
%%score { ( 1 3 4 ) | ( 2 5 ) }
L:1/8
Q:1/4=116
M:4/4
K:F
V:1 treble nm="Grand Piano"
V:3 treble 
V:4 treble 
V:2 bass 
V:5 bass 
V:1
 [F,A,CF]6 C2- | C2 F2 F2 G2- | G2 A6 | AA A2 B2 c2- | cB A2 G2 F2- | F2 A2- AA A2 | %6
w: Willima~Jackson~of~Exeter *||||||
 A2 [DFB]2 [DFB]2 [CFA]2- | [CFA][CFA] [CFA]2- [CFA][CGB] [CAc]2 | z4 G2 z2 | z c c2 c2 c2 | %10
w: ||||
 c2 d2- dd c2 | z c c2- cc c2 | c2 d2- dd c2 | z F F4 [EG][EG] | [EG][EG]AA AA[F=B][FB] | %15
w: |||||
 z2 c4 z2 | BG c4 c2- | c2 [Ec]4 [Ec]2- | [Ec]2 c4 c2- | c2 c4 [D=B]2 | %20
w: |||||
 [D=B]2 [Ec]2- [Ec][Ec] [Ec]2- | [Ec]2 [Ec]2 [Ec]2 [Ec]2 | [Ec]2 e6 | %23
w: |||
 [Ge][Ge][Ge][Ge] [Ge]2 [Ge]2 | [Ge]2 [Af]6- |[M:6/4] [Af]2 [Ge]4- [Ge]6- |[M:4/4] [Ge]2 z2 z4 | %27
w: ||||
 [Ec]d [Ge]2- [Ge]fed | cd e2- efed | cd [Ec]4 =B2 | =B,C [B,D]2- [B,D]EDC | =B,C D2- DEDC | %32
w: |||||
 =B,2 [Ge]4 e2 | =Bc [Fd]2- [Fd]edc | =Bc [Fd]2 dedc | =Bc d4 [Ec]2 | z [Ec] c2 c2 c2 | %37
w: |||||
 cc c2 c2 d2 | [Be][Af] f4 z2 | B,2 f4 z2 | A2 A2 A2 z2 | A[GB] [Ac]4 [GB]2 | %42
w: |||||
 [FA]2 [EG]2- [EG][EG] [EG]2 | z2 A2- AAAA | A2 A2- A[GB] [Ac]2 | [GB][FA] [EG]4 z2 | %46
w: ||||
 z2 [Ec]2 [Ec][Ec] [Ec]2 | [Ec]2 [Fc]6 | [DFd]2 [FA]4 [EG]2- | [EG]F F4 z2 | z2 d2 d>d d2 | z8 | %52
w: ||||||
 z2 c6- | c2 z2 z4 | z2 d2 d>d dd | dd [G_e]4 d2 | z2 c6- | c2 z2 z4 | z2 AA A[GB][Ac][Ac] | %59
w: |||||||
 [Ac][Bd] [c_e]2 [Bd]2 [Ac]2 | [Ac][GB]AA AB [Ac]2 | [Ac][Bd] [c_e]4 [Bd]2 | [Bd]2 [Bd]4 [Ac]2 | %63
w: ||||
 z2 [DB]2 [DF][DF][_EG][EG] | [_EG][EG] [CFA]2 [CEA][CEA] [DB]2 | [DB][DB] c2 cc d2 | %66
w: |||
 dd _e2 e2 [Ff]2- |[M:7/8] [Ff][G_e] d2 c2 [DB]- |[M:1/4] [DB]2 | [DF]2 | %70
w: ||||
[M:4/4] [FB][FB][FB]B c2 cc | d4 z2 d_e | [Ff]3 [G_e] [Fd]2 [_Ec]2 | [DB]2 [DB]2 z4 | %74
w: ||||
 [GB]3 [GB] [GB]2 [GB]2 | [_Ac]2 [GB]A [_EG]2 [GB]2 | [F_A]2 [_EG]F [EG]4 | z2 z [GB] [GB]2 [GB]2 | %78
w: ||||
 [c_e]2 [Bd]2 [_Ac]2 [GB]2 | [F_A]2 [FA]2 [FA][FA][FA][FA] | [_Ac]3 [GB]/A/ [_EG]2 [FA]2 | %81
w: |||
 [_EG]2 [DF]2 E2 z2 | GGGG [F_A]2 [FA]2 | [GB]2 [GB]2 [_Ac]3 [Ac] | [_Ad]2 [Ad]2 [B_e]2 [Ae]2 | %85
w: ||||
 [G_e]4 d4 | [G_e]4 z4 | z4 z2 [_EG]2 | [_EG]4 [EG]2 [EG]2 | G2 G2 z2 G2 | [_EG]6 [EG]2 | %91
w: ||||||
 GG G2 z4 | [_EG]2 [F=B]2 [Gc]2 d2 | _e4 d2 c2 | z4 =B4 | [_Ec]2 [Ec]2 z4 | %96
w: |||||
 [EG]2 [DG=B]2 [CGc]2 [Gd]2 | [Ge]>[Ge] [Fd]c [Ec]=BBB | cc [CEG]2 [CFA]2 [FAd][FAd] | %99
w: |||
 [EGc]>[EGc] [DF=B]2 [CEc]4 | z4 z2 [A,CE]2 | [CEA]2 [DE_A]2 [E=A]3 [DE] | %102
w: |||
 [CEA]2 [DE_A][DEA] [E=A]2 [Fd]2 | c2 =B2 [A,CA]2 z [A,FA] | [DFA]2 [^CGA]2 [DFA]2 [CGA][CGA] | %105
w: |||
 [DFA]4 [^CEA]2 [CEA]2 | z4 [DF]2 E2 |[M:3/4] D4 z2 |[M:1/4] c2 |[M:4/4] c4 z4 | A4 [EG]4 | c4 B4 | %112
w: |||||||
 A4 F4 | [Fd]4 [Fd]4 | [CFc]6 [DFA]2 | [DGB]4 [CFA]2 [CEG]2 | [CFA]4 z2 C2 | F4 G4 | A6 B2 | %119
w: |||||||
 c2 BA G4 | F4 z2 cc | d2 c2 z2 cc | d4 c4 | B4 z4 | [FA]4 G4 | F8 |] %126
w: |||||||
V:2
 F,,6 C,2- | C,2 F,2 F,2 G,2- | G,2 A,6 | A,A, A,2 B,2 C2- | CB, A,2 G,2 F,2- | %5
 F,2 [F,CF]2- [F,CF][F,CF] [F,CF]2 | [F,CF]2 B,,2 B,,2 F,2- | F,F, F,2- F,F, F,2 | %8
 B,,2 z2 E2 [F,A,]2 | z[K:treble] [F,A,F] [F,A,F]2 [F,A,F]2 [F,A,F]2 | %10
 [F,A,F]2 [B,F]2- [B,F]F [F,A,F]2 | z [F,A,F] [F,A,F]2- [F,A,F][F,A,F] [F,A,F]2 | %12
 [F,A,F]2 [B,F]2- [B,F][B,F][K:bass] [F,A,F]2 | z [F,A,C] [F,A,C]4 [C,C][C,C] | %14
 [C,C][C,C][F,CF][F,CF] [F,CF][F,CF][D,D][D,G,] | z2 .C2 E2[K:treble] z2 | %16
 GE [F,A,F]4[K:bass] [F,A,F]2- | [F,A,F]2 [C,G,]4 [C,G,]2- | [C,G,]2 [F,A,F]4 [F,A,F]2- | %19
 [F,A,F]2 [G,E]4 [G,,G,]2 | [G,,G,]2 [C,G,]2- [C,G,][C,G,] [C,G,]2- | %21
 [C,G,]2 [C,G,]2 [C,G,]2 [C,G,]2 | [C,G,]2 [CG]6 | [C,C][C,C][C,C][C,C] [C,C]2 [C,C]2 | %24
 [C,C]2 [F,C]6- |[M:6/4] [F,C]2 [C,C]4- [C,C]6- |[M:4/4] [C,C]2 C,2 C,2 C,2 | %27
 z[K:treble] F z2 z AGF | EF G2- GAGF | EF[K:bass] [C,G,]4 [G,D]2 | G,A, z2 z C=B,A, | %31
 G,A, =B,2- B,CB,A, | G,2 z2 z2[K:treble] G2 | DE[K:bass] z2 z GFE | DE z2 FGFE | %35
 D[K:treble]E [G,=B,F]4[K:bass] [C,C]2 | z [C,C][K:treble] [CEG]2 [CEG]2 [B,EG]2 | %37
 [B,EG][B,EG] [A,F]2 [A,CF]2 [B,F]2 | [G,C][F,C][K:treble] [CA]4[K:bass] C2 | z2 [F,A,F]4 z2 | %40
 [F,CF]2 [F,CF]2 [F,CF]2 z2 | [F,CF][F,C] [F,C]4 [E,C]2 | [F,C]2 [C,C]2- [C,C][C,C] [C,C]2 | %43
 z2 [F,CF]2- [F,CF][F,CF][F,CF][F,CF] | [F,CF]2 [F,CF]2- [F,CF][F,C] [F,C]2 | [F,C]2 [C,C]4 z2 | %46
 z2 [C,G,]2 [C,G,][C,G,] [B,,G,]2 | [B,,G,]2 [A,,F,]6 | B,,2 [C,C]4 [C,B,]2- | %49
 [C,B,][C,A,] [F,A,]4 z2 | z2[K:treble] [B,F]2 [B,F]>[B,F] [B,F]2 | [B,F]2 [_E,B,]4 [B,F]2- | %52
 [B,F]2[K:bass] [F,-F]6 | [F,_E]2 B,,4 z2 | z2[K:treble] [B,F]2 [B,F]>[B,F] [B,F][B,F] | %55
 [B,F][B,F] [_E,B,]4 [B,F]2 | [B,F]2[K:bass] [F,-F]6 | F,2 [B,,B,]4 z2 | %58
 z2 [F,F][F,F] [F,F]F,F,F, | F,F, F,2 F,2 F,2 | F,F,[K:treble][F,F][F,F] FG[K:bass] F,2 | %61
 F,F, F,4 F,2 | F,2 F,4 F,2 | z2 [B,,F,]2 [B,,B,][B,,B,][B,,B,][B,,B,] | %64
 [B,,B,][B,,B,] B,,2 B,,B,, [B,,B,]2 | [B,,B,][B,,B,][K:treble] [F,A,F]2 [F,A,F][F,A,F] [B,F]2 | %66
 [B,F][B,F] [G,B,G]2 [G,B,G]2[K:bass] [D,B,]2- |[M:7/8] [D,B,][_E,B,] [B,F]2 [A,_E]2 [B,,B,]- | %68
[M:1/4] [B,,B,]2 | [B,,B,]2 |[M:4/4] [D,B,][D,B,][D,B,][D,B,][K:treble] [F,A,F]2 [F,A,F][F,A,F] | %71
 [B,F]4 z2 [B,F][G,B,G] | [D,B,]3 [_E,B,] [F,B,]2 [F,A,]2 | [B,,B,]2 [B,,B,]2 B,_A,G,F, | %74
 _E,3 E, E,2 E,2 | _A,,2 z F C,2 G,,2 | _A,,2 z D _E,4 | z2 z _E, E,2 E,2 | _E,2 E,2 E,2 E,2 | %79
 B,,2 B,,2 B,,B,,B,,B,, | _A,,B,, .C,>F _E,2 A,,2 | B,,2 B,,2 _E,2 z2 | %82
 [_E,_E][E,E][E,E][E,E] E,2 E,2 | _E,2 E,2 E,3 E, | F,2 F,2 G,2 _A,2 | z4 F4 | _E,4 z4 | %87
 z4 z2 [C,C]2 | [C,C]4 [C,C]2 [C,C]2 | [G,=B,D]2 [G,B,D]2 z2 [G,B,D]2 | [C,C]6 [C,C]2 | %91
 [G,C_E][G,=B,D] [G,B,D]2 z4 | [C,C]2 [D,G,]2 [_E,C]2[K:treble] [G,=B,G]2 | %93
 [CG]4[K:bass] [F,_A,F]4 | [G,_E]4 [G,,G,]4 | [C,G,]2 [C,G,]2 z4 | C,2 D,2 E,2 [D,=B,]2 | %97
 [C,C]>[C,C] z E z D[F,G,D][F,G,D] | [E,G,E][E,G,E] C,2 F,2 D,D, | G,>G, G,,2 C,4 | %100
 A,,2 C,2 E,2 A,,2 | A,,2 =B,,2 C,3 B,, | A,,2 =B,,B,, C,2 [D,A,]2 | A,2 _A,2 z4 | %104
 D,2 E,2 F,2 E,E, | D,4 A,,2 A,,2 | D,2 G,,G,, z2 ^C2 |[M:3/4] [D,F,]4 z2 | %108
[M:1/4][K:treble] [F,A,F]2 |[M:4/4] [CF]2 z2[K:bass] [G,CD]2 [G,CE]2 | [F,CF]4 [C,C]4 | %111
 [CF]2 z2 D2 z2 | [CF]4[K:bass] [D,B,]2 [C,A,]2 | [B,,B,]4 [B,,B,]4 | A,,6 D,2 | B,,4 C,2 C,2 | %116
 F,4 z2 C,2 | F,4 G,4 | A,6 B,2 | C2 B,A, G,4 | F,4 z2 [F,A,F][F,A,F] | %121
 [F,B,F]2 [F,A,F]2 z2[K:treble] [F,A,F][F,A,F] | [B,F]4 [A,CF]4 | %123
 [CG]4[K:bass] [F,C]2 z[K:treble] B | z4 E4 | [F,A,]8 |] %126
V:3
 x8 | x8 | x8 | x8 | x8 | x8 | x8 | x8 | [DGB]2 [FA]2 z B, F2 | x8 | x8 | x8 | x8 | x8 | x8 | %15
 [F=B][FB] z F GA_BA | x8 | x8 | x8 | x8 | x8 | x8 | x8 | x8 | x8 |[M:6/4] x12 |[M:4/4] x8 | x8 | %28
 x8 | x8 | x8 | x8 | x8 | x8 | x8 | x8 | x8 | x8 | z4 z2 [Ge]2- | [Ge]2 z2 z4 | x8 | x8 | x8 | x8 | %44
 x8 | x8 | x8 | x8 | x8 | x8 | x8 | d2 [G_e]4 d2- | d2 z2 z2 A,2- | A,2 [B,DB]4 z2 | x8 | x8 | %56
 d2 z2 z4 | _E2 [DB]4 z2 | x8 | x8 | x8 | x8 | x8 | x8 | x8 | x8 | x8 |[M:7/8] x7 |[M:1/4] x2 | %69
 x2 |[M:4/4] x8 | x8 | x8 | x8 | x8 | x8 | x8 | x8 | x8 | x8 | x8 | x8 | x8 | x8 | x8 | x8 | x8 | %87
 x8 | x8 | x8 | x8 | x8 | x8 | x8 | c4 D2 F2 | x8 | x8 | x8 | x8 | x8 | x8 | x8 | x8 | x8 | x8 | %105
 x8 | [DFA]2 [B,EG][B,DF] A,3 G, |[M:3/4] x6 |[M:1/4] x2 |[M:4/4] z2 C2 B2 B2 | x8 | z2 C2 z2 E2 | %112
 z2 _E,2 B2 c2 | x8 | x8 | x8 | x8 | x8 | x8 | x8 | x8 | x8 | x8 | z2 E,2 [FA]2 .[DGc]2 | C6 B,2 | %125
 x8 |] %126
V:4
 x8 | x8 | x8 | x8 | x8 | x8 | x8 | x8 | z2 C4 z2 | x8 | x8 | x8 | x8 | x8 | x8 | x8 | x8 | x8 | %18
 x8 | x8 | x8 | x8 | x8 | x8 | x8 |[M:6/4] x12 |[M:4/4] x8 | x8 | x8 | x8 | x8 | x8 | x8 | x8 | %34
 x8 | x8 | x8 | x8 | x8 | x8 | x8 | x8 | x8 | x8 | x8 | x8 | x8 | x8 | x8 | x8 | x8 | x8 | x8 | %53
 x8 | x8 | x8 | z4 z2 A,2- | A,2 z2 z4 | x8 | x8 | x8 | x8 | x8 | x8 | x8 | x8 | x8 |[M:7/8] x7 | %68
[M:1/4] x2 | x2 |[M:4/4] x8 | x8 | x8 | x8 | x8 | x8 | x8 | x8 | x8 | x8 | x8 | x8 | x8 | x8 | x8 | %85
 x8 | x8 | x8 | x8 | x8 | x8 | x8 | x8 | x8 | x8 | x8 | x8 | x8 | x8 | x8 | x8 | x8 | x8 | x8 | %104
 x8 | x8 | x8 |[M:3/4] x6 |[M:1/4] x2 |[M:4/4] x8 | x8 | x8 | x8 | x8 | x8 | x8 | x8 | x8 | x8 | %119
 x8 | x8 | x8 | x8 | x8 | x8 | x8 |] %126
V:5
 x8 | x8 | x8 | x8 | x8 | x8 | x8 | x8 | z2 C,4 z2 | x[K:treble] x7 | z4 z .B,3 | x8 | %12
 x6[K:bass] x2 | x8 | x8 | [D,G,][D,G,][C,,C,G,E]-[C,,-C,-G,-DE] [C,,C,G,]-[C,,C,G,F][K:treble]GF | %16
 x6[K:bass] x2 | x8 | x8 | x8 | x8 | x8 | x8 | x8 | x8 |[M:6/4] x12 |[M:4/4] x8 | %27
 C,2[K:treble] C,6- | C,8- | C,2[K:bass] z2 z4 | z2 G,,6- | G,,8- | G,,2 [C,C]6[K:treble] | %33
 [G,=B,]2[K:bass] G,,6- | G,,2 G,,6- | G,,2[K:treble] z2 z4[K:bass] | x2[K:treble] x6 | x8 | %38
 z4[K:treble] z2[K:bass] C,2- | C,2 z2 z4 | x8 | x8 | x8 | x8 | x8 | x8 | x8 | x8 | x8 | x8 | %50
 x2[K:treble] x6 | x8 | z2[K:bass] B,4 z2 | x8 | x2[K:treble] x6 | x8 | z2[K:bass] B,4 z2 | x8 | %58
 x8 | x8 | z4[K:treble] F,2[K:bass] z2 | x8 | x8 | x8 | x8 | x2[K:treble] x6 | x6[K:bass] x2 | %67
[M:7/8] z2 F,- F,3 z |[M:1/4] x2 | x2 |[M:4/4] x4[K:treble] x4 | x8 | x8 | x8 | x8 | z2 B,,2 z4 | %76
 z2 B,,2 z4 | x8 | x8 | x8 | z2 z D, z4 | x8 | x8 | x8 | x8 | B,8 | x8 | x8 | x8 | x8 | x8 | x8 | %92
 x6[K:treble] x2 | x4[K:bass] x4 | x8 | x8 | x8 | z2 [F,A,]2 G,2 z2 | x8 | x8 | x8 | x8 | x8 | %103
 [E,-E]3 [E,D] A,,2 z D, | x8 | x8 | z4 A,,4 |[M:3/4] x6 |[M:1/4][K:treble] x2 | %109
[M:4/4] A,4[K:bass] z4 | x8 | A,4 [G,C]4 | F,2 z2[K:bass] z4 | x8 | x8 | x8 | x8 | x8 | x8 | x8 | %120
 x8 | x6[K:treble] x2 | x8 | G,2 z2[K:bass] z2 B,,2[K:treble] | C,8 | x8 |] %126

